assets/Man/Dark/Flat/man_flat_dark.svg

<svg width="32" height="32" viewBox="0 0 32 32" fill="none" xmlns="http://www.w3.org/2000/svg">
<path d="M25.7867 6.37638L24.9865 5.97854C24.3863 5.68016 23.8862 5.38178 23.4861 4.88448L21.9856 3.39259C20.7853 2.29853 19.0848 1.90069 17.5843 2.39799C16.584 2.69637 15.4837 2.69637 14.4834 2.39799C13.083 1.70177 11.4825 2.00015 10.3822 2.99475L8.58168 4.88448C8.08154 5.28232 7.58139 5.68016 7.08124 5.97854L6.28101 6.37638C4.8806 7.07259 4.08036 8.66395 4.28042 10.2553L5.38074 15.9245C5.48077 16.5213 5.98092 16.9191 6.5811 16.9191C12.5 16.9191 19 17.0186 25.4866 17.0186C26.0868 17.0186 26.4869 16.6207 26.587 16.024L27.6873 10.3548C27.9874 8.66395 27.1871 7.07259 25.7867 6.37638Z" fill="black"/>
<path d="M25.6218 15.0645C25.5475 15.9893 25.4866 17.0185 25.4866 17.0185C26.0868 17.0185 26.4869 16.6207 26.587 16.0239L26.6852 15.5177C27.4788 16.0575 28 16.9679 28 18C28 19.6569 26.6569 21 25 21C23.3431 21 22 19.6569 22 18C22 16.3431 23.3431 15 25 15C25.2132 15 25.4212 15.0222 25.6218 15.0645Z" fill="#4E3233"/>
<path d="M5.30332 15.5255L5.38074 15.9244C5.48077 16.5212 5.98092 16.919 6.5811 16.919C6.5811 16.919 6.52214 15.9812 6.44949 15.0504C6.62795 15.0173 6.81195 15 7 15C8.65685 15 10 16.3431 10 18C10 19.6569 8.65685 21 7 21C5.34315 21 4 19.6569 4 18C4 16.9729 4.5162 16.0663 5.30332 15.5255Z" fill="#4E3233"/>
<path d="M6.48961 16.9159C6.51982 16.918 6.55033 16.919 6.5811 16.919C6.5811 16.919 6.48107 15.3277 6.38104 14.2336C6.38104 13.7363 6.5811 13.1396 6.98122 12.8412L7.28131 12.5428C7.78145 12.145 7.98151 11.5482 7.98151 10.9515V9.36011C7.98151 8.86281 8.2816 8.46497 8.78175 8.36551C9.9821 8.06713 12.4828 7.56984 16.0839 7.56984C19.6849 7.56984 22.1857 8.06713 23.386 8.36551C23.7861 8.46497 24.1863 8.86281 24.1863 9.36011V10.9515C24.1863 11.5482 24.4864 12.145 24.8865 12.5428L25.0865 12.9407C25.4866 13.3385 25.6867 13.8358 25.6867 14.3331C25.5867 15.3277 25.4866 17.0185 25.4866 17.0185C25.498 17.0185 25.5092 17.0184 25.5204 17.0181L25.0246 24.4C24.7253 27.7 22.131 30 19.0378 30H13.0509C9.85792 30 7.36339 27.7 7.06405 24.4L6.48961 16.9159Z" fill="#573739"/>
<path d="M15.2872 17.5266L14.2963 20.6961C14.0941 21.348 14.5794 22 15.2669 22H16.7331C17.4206 22 17.9059 21.338 17.7037 20.6961L16.7128 17.5266C16.5005 16.8245 15.5096 16.8245 15.2872 17.5266Z" fill="#3D2123"/>
<path d="M16 23.8954C15.0538 23.8954 14.1644 23.6727 13.417 23.2831C13.1615 23.1532 12.8871 23.4408 13.048 23.6727C13.6724 24.6191 14.7605 25.25 16 25.25C17.2395 25.25 18.3276 24.6191 18.952 23.6727C19.1129 23.4315 18.8385 23.1532 18.583 23.2831C17.8356 23.6727 16.9556 23.8954 16 23.8954Z" fill="#290118"/>
<path d="M9.01481 17.3673C9.30113 16.2403 10.3279 15.4 11.5423 15.4C12.8061 15.4 13.8625 16.2996 14.0994 17.4958C14.1488 17.7627 13.9415 18 13.6749 18H9.51834C9.18266 18 8.93583 17.6935 9.01481 17.3673Z" fill="white"/>
<path d="M22.9852 17.3673C22.6989 16.2403 21.6721 15.4 20.4577 15.4C19.1841 15.4 18.1375 16.2996 17.9006 17.4958C17.8512 17.7627 18.0585 18 18.3251 18H22.4817C22.8173 18 23.0642 17.6935 22.9852 17.3673Z" fill="white"/>
<path d="M10.2588 17.5568C10.2588 16.6311 11.0091 15.8924 11.9273 15.8924C12.8455 15.8924 13.586 16.6311 13.586 17.5568C13.586 17.7144 13.5663 17.8621 13.5268 18H10.318C10.2785 17.8523 10.2588 17.7144 10.2588 17.5568Z" fill="#7D4533"/>
<path d="M21.7412 17.5568C21.7412 16.6311 20.9908 15.8924 20.0726 15.8924C19.1545 15.8924 18.4041 16.6311 18.414 17.5568C18.414 17.7144 18.4337 17.8621 18.4732 18H21.682C21.7214 17.8523 21.7412 17.7144 21.7412 17.5568Z" fill="#7D4533"/>
<path d="M11.9274 16.6114C12.4506 16.6114 12.8752 17.0348 12.8752 17.5568C12.8752 17.7144 12.8357 17.8621 12.7666 18H11.0882C11.019 17.8621 10.9796 17.7144 10.9796 17.5568C10.9796 17.0348 11.4041 16.6114 11.9274 16.6114Z" fill="black"/>
<path d="M20.0627 16.6114C19.5395 16.6114 19.1149 17.0348 19.1149 17.5568C19.1149 17.7144 19.1544 17.8621 19.2235 18H20.902C20.9711 17.8621 21.0106 17.7144 21.0106 17.5568C21.0106 17.0348 20.586 16.6114 20.0627 16.6114Z" fill="black"/>
<path d="M11.6509 16.92C11.6509 17.0857 11.5183 17.22 11.3547 17.22C11.1911 17.22 11.0585 17.0857 11.0585 16.92C11.0585 16.7543 11.1911 16.62 11.3547 16.62C11.5183 16.62 11.6509 16.7543 11.6509 16.92Z" fill="white"/>
<path d="M19.8456 16.92C19.8456 17.0857 19.7129 17.22 19.5494 17.22C19.3858 17.22 19.2532 17.0857 19.2532 16.92C19.2532 16.7543 19.3858 16.62 19.5494 16.62C19.7129 16.62 19.8456 16.7543 19.8456 16.92Z" fill="white"/>
<path d="M8.96281 12.9869L8.96425 12.9857L8.96581 12.9844L8.96929 12.9815L8.97765 12.9747L9.00001 12.9569C9.0174 12.9433 9.03978 12.9262 9.06704 12.9062C9.12151 12.8663 9.19575 12.8147 9.28882 12.7564C9.47451 12.6401 9.73809 12.4952 10.0715 12.3634C10.741 12.0987 11.697 11.8855 12.8552 12.0684C13.3981 12.1541 13.7687 12.6637 13.683 13.2067C13.5973 13.7496 13.0877 14.1202 12.5447 14.0345C11.8029 13.9174 11.2089 14.0542 10.8034 14.2145C10.5993 14.2952 10.4441 14.3815 10.3455 14.4433C10.2963 14.4741 10.262 14.4983 10.2434 14.5119C10.2357 14.5176 10.2307 14.5213 10.2287 14.523C9.80652 14.8671 9.18493 14.808 8.83538 14.3886C8.48349 13.9663 8.54055 13.3388 8.96281 12.9869Z" fill="black"/>
<path d="M22.9364 12.9863L22.9341 12.9844L22.9307 12.9815L22.9223 12.9747L22.8999 12.9569C22.8825 12.9433 22.8602 12.9262 22.8329 12.9062C22.7784 12.8663 22.7042 12.8147 22.6111 12.7564C22.4254 12.6401 22.1618 12.4952 21.8284 12.3634C21.1589 12.0987 20.2029 11.8855 19.0448 12.0684C18.5018 12.1541 18.1312 12.6637 18.2169 13.2067C18.3026 13.7496 18.8123 14.1202 19.3552 14.0345C20.097 13.9174 20.691 14.0542 21.0966 14.2145C21.3006 14.2952 21.4558 14.3815 21.5545 14.4433C21.6036 14.4741 21.6379 14.4983 21.6565 14.5119C21.6643 14.5176 21.6692 14.5213 21.6713 14.523C22.0934 14.8671 22.715 14.808 23.0646 14.3886C23.4164 13.9663 23.3587 13.3382 22.9364 12.9863Z" fill="black"/>
</svg>

<svg xmlns="http://www.w3.org/2000/svg" width="32" height="32" fill="none"><path fill="#000" d="m25.787 6.376-.8-.397c-.6-.299-1.1-.597-1.5-1.095l-1.501-1.491c-1.2-1.094-2.901-1.492-4.402-.995-1 .298-2.1.298-3.1 0-1.401-.696-3.002-.398-4.102.597l-1.8 1.89c-.5.397-1 .795-1.5 1.094l-.801.397c-1.4.697-2.2 2.288-2 3.88l1.1 5.668c.1.597.6.995 1.2.995 5.919 0 12.419.1 18.906.1.6 0 1-.398 1.1-.995l1.1-5.67c.3-1.69-.5-3.281-1.9-3.978Z"/><path fill="#4E3233" d="M25.622 15.065c-.075.924-.135 1.954-.135 1.954.6 0 1-.398 1.1-.995l.098-.506a3 3 0 1 1-1.063-.453ZM5.303 15.525l.078.4c.1.596.6.994 1.2.994 0 0-.059-.938-.132-1.869a3 3 0 1 1-1.146.475Z"/><path fill="#573739" d="M6.49 16.916c.03.002.06.003.091.003 0 0-.1-1.591-.2-2.685 0-.498.2-1.094.6-1.393l.3-.298c.5-.398.7-.995.7-1.591V9.36c0-.497.3-.895.8-.994 1.201-.299 3.702-.796 7.303-.796 3.6 0 6.102.497 7.302.796.4.099.8.497.8.994v1.591c0 .597.3 1.194.7 1.592l.2.398c.4.397.6.895.6 1.392-.1.995-.2 2.685-.2 2.685h.034l-.495 7.382c-.3 3.3-2.894 5.6-5.987 5.6H13.05c-3.193 0-5.688-2.3-5.987-5.6l-.574-7.484Z"/><path fill="#3D2123" d="m15.287 17.527-.99 3.17a1.005 1.005 0 0 0 .97 1.303h1.466c.688 0 1.173-.662.97-1.304l-.99-3.17c-.213-.701-1.203-.701-1.426 0Z"/><path fill="#290118" d="M16 23.895a5.603 5.603 0 0 1-2.583-.612c-.255-.13-.53.158-.369.39A3.53 3.53 0 0 0 16 25.25a3.53 3.53 0 0 0 2.952-1.577c.16-.241-.114-.52-.369-.39a5.574 5.574 0 0 1-2.583.612Z"/><path fill="#fff" d="M9.015 17.367a2.607 2.607 0 0 1 5.085.128.428.428 0 0 1-.425.505H9.518a.512.512 0 0 1-.503-.633ZM22.985 17.367a2.617 2.617 0 0 0-2.527-1.967 2.6 2.6 0 0 0-2.557 2.096.428.428 0 0 0 .424.504h4.157a.512.512 0 0 0 .503-.633Z"/><path fill="#7D4533" d="M10.259 17.557a1.664 1.664 0 1 1 3.268.443h-3.209a1.655 1.655 0 0 1-.06-.443ZM21.741 17.557c0-.926-.75-1.665-1.668-1.665a1.65 1.65 0 0 0-1.659 1.665c0 .157.02.305.06.443h3.208c.04-.148.06-.286.06-.443Z"/><path fill="#000" d="M11.927 16.611a.947.947 0 0 1 .84 1.389h-1.679a.947.947 0 0 1 .84-1.389ZM20.063 16.611a.947.947 0 0 0-.84 1.389h1.679a.947.947 0 0 0-.84-1.389Z"/><path fill="#fff" d="M11.65 16.92c0 .166-.132.3-.295.3a.298.298 0 0 1-.296-.3c0-.166.132-.3.296-.3.163 0 .296.134.296.3ZM19.846 16.92c0 .166-.133.3-.297.3a.298.298 0 0 1-.296-.3c0-.166.133-.3.296-.3.164 0 .297.134.297.3Z"/><path fill="#000" d="m8.963 12.987.001-.001.002-.002.003-.002.009-.007.022-.018c.017-.014.04-.03.067-.05.055-.04.129-.092.222-.15.186-.117.45-.262.783-.394a5.283 5.283 0 0 1 2.783-.295.995.995 0 1 1-.31 1.966 3.293 3.293 0 0 0-1.742.18 2.828 2.828 0 0 0-.56.298l-.014.011a.995.995 0 0 1-1.266-1.536ZM22.936 12.986l-.002-.002-.003-.002-.009-.007-.022-.018a3.705 3.705 0 0 0-.289-.2 4.818 4.818 0 0 0-.783-.394 5.282 5.282 0 0 0-2.783-.295.995.995 0 1 0 .31 1.966 3.294 3.294 0 0 1 1.742.18 2.836 2.836 0 0 1 .56.298l.014.011a.995.995 0 0 0 1.265-1.537Z"/></svg>
